X:1
T:Quando vedro di questa
T:Giovanni Animuccia (?)
T:Source : Primo libro delle Laude spirituali a tre voci---Roma---A.Gardano---1583. Editor : André Vierendeels (19/11/17). Notes : Original clefs : C1, C3, F4 Original note values have been halved Editorial accidentals above tha staff 
T:Quando vedro di questa
T:©
T:©
C:Giovanni Animuccia (?)
Z:©
%%score [ 1 2 3 ]
L:1/8
Q:1/4=120
M:2/2
K:F
V:1 treble nm="Soprano" snm="S"
V:2 treble-8 nm="Tenor" snm="T"
V:3 bass nm="Bass" snm="B"
V:1
 F4 G3 G | A4 z2 F2 | F2 C2 D2 E2 | F4 E4 | z2 G2 G2 G2 | G2 G2 G4- | G2 E2 G2 G2 | A4 G4 | %8
w: Quan- do ve-|dro di|que- sta mor- tal|lu- ce|l'oc- ca- so'et|di quell' al-|* tra'e- ter- na|l'or- to|
w: E scor- ge-|o quel|rag- gio, che tra|lu- ce|sin dal Ciel|nel mio Cuor,|_ del cui con-|for- to|
 z2 G2 G2 G2 | A2 c2 B3 A | G2 A2 F4 | G4 z2 c2 | c2 c2 A2 c2 | B3 A G2 A2 | BAAG/F/ G4 | F8 |] %16
w: sa- na pur|gion- t'al de- *|sta- to por-|to, l'al-|ma cui spe- me|ho- ra fra via|con- * * * * du-|ce.|
w: vi- vo con|oc- chio piu di|que- sto'ac- cor-|to, com'|ar- de, co- me|pa- * sc'e co-|me _ _ _ _ lu-|ce.|
V:2
 c4 e3 e | f4 z2 c2 | c2 A2 B2 Gc- | cB/A/ =B2 c4 | z2 e2 e2 e2 | e2 e2 d4- | d2 c2 e2 e2 | f4 e4 | %8
w: Quan- do ve-|dro di|que- sta mor- tal _|_ _ _ lu- ce|l'oc- ca- so'et|di quell' al|_ tra'e- ter- na|l'or- to|
w: So- a- ve|sia'il mo-|rir per vi- ver _|_ _ _ sem- pre|e chiu- der|gl'oc- chi per|_ a- prir- li'o-|gn'ho- ra|
 z2 e2 e2 e2 | f3 e d2 d2 | e2 c2 d4 | e4 z2 e2 | e2 e2 f2 f2 | d3 d _e2 d2 | %14
w: sa- na pur|gion- * tal de|sta- to por-|to, l'al-|ma cui spe- me|ho- ra fra via|
w: in quel si|chia- ro'è lu- ci-|do sog- gior-|no l'al-|ma cui spe- me|ho- ra fra via|
"^-natural" f3 e/d/ e4 | f8 |] %16
w: con- * * du-|ce.|
w: con- * * du-|ce.|
V:3
 F,4 C,3 C, | F,4 z2 F,2 | F,2 F,2 B,,2 C,2 | D,4 C,4 | z2 C,2 C,2 C,2 | C,2 C,2 G,4- | %6
w: Quan- do ve-|dro di|que- sta mor- tal|lu- ce|l'oc- ca- so'et|di quell' al-|
w: Dol- c'il can-|giar de|que- ste va- rie|tem- pre|col fer- mo|sta- t'o quan-|
 G,2 C,2 C,2 C,2 | F,4 C,4 | z2 C,2 C,2 C,2 | F,2 F,2 G,3 F, | E,2 F,2 D,4 | C,4 z2 C,2 | %12
w: * tra'e- ter- na|l'or- to|sa- na pur|gion- tal de- *|sta- to por-|to, l'al-|
w: * do fia l'Au-|ro- ra,|di co si|chia- ro'a- ven- tu-|ro- so gior-|no, l'al-|
 C,2 C,2 F,2 F,2 | G,3 F, _E,2 F,2 | B,,2 D,2 C,4 | F,,8 |] %16
w: ma cui spe- me|ho- ra fra via|con- * du-|ce.|
w: ma cui spe- me|ho- ra fra via|con- * du-|ce.|

